public/images/mail_footer.svg

<svg fill="none" height="46" viewBox="0 0 46 46" width="46" xmlns="http://www.w3.org/2000/svg" xmlns:xlink="http://www.w3.org/1999/xlink"><mask id="a" height="9" maskUnits="userSpaceOnUse" width="22" x="12" y="15"><path d="m12.6238 15h20.9083v8.9751h-20.9083z" fill="#fff"/></mask><mask id="b" height="15" maskUnits="userSpaceOnUse" width="23" x="12" y="16"><path d="m12 16.6074h22.2416v13.7678h-22.2416z" fill="#fff"/></mask><path d="m46 23c0 12.7025-10.2975 23-23 23s-23-10.2975-23-23 10.2975-23 23-23 23 10.2975 23 23z" fill="#f5ecd5"/><g mask="url(#a)"><path d="m23.1258 23.9461c.9264-.0681 5.9233-4.1801 10.3578-8.2315-.4504-.4376-1.0637-.7083-1.7416-.7083h-17.2405c-.6965 0-1.3262.2851-1.7801.7448 4.4469 4.03 9.4691 8.1296 10.4044 8.195z" fill="#587a33"/></g><g mask="url(#b)"><path d="m29.6655 20.6009c-5.3123 4.4963-6.1753 4.4963-6.544 4.4963-.3679 0-1.2301 0-6.544-4.4594-1.8578-1.5592-3.6251-3.1323-4.4617-3.8845-.0758.2384-.117.4924-.117.756v10.3636c0 1.3811 1.1197 2.5008 2.5007 2.5008h17.2405c1.3822 0 2.5027-1.1201 2.5027-2.5027v-10.3636c0-.2824-.049-.5527-.1354-.8062-.8435.7646-2.5983 2.3393-4.4418 3.8997z" fill="#587a33"/></g></svg>

<svg width="46" height="46" viewBox="0 0 46 46" fill="none" xmlns="http://www.w3.org/2000/svg">
<path d="M46 23C46 35.7025 35.7025 46 23 46C10.2975 46 0 35.7025 0 23C0 10.2975 10.2975 0 23 0C35.7025 0 46 10.2975 46 23Z" fill="#F5ECD5"/>
<mask id="mask0_168_68" style="mask-type:luminance" maskUnits="userSpaceOnUse" x="12" y="15" width="22" height="9">
<path d="M12.6238 15H33.5321V23.9751H12.6238V15Z" fill="white"/>
</mask>
<g mask="url(#mask0_168_68)">
<path d="M23.1258 23.9461C24.0522 23.878 29.0491 19.766 33.4836 15.7146C33.0332 15.277 32.4199 15.0063 31.742 15.0063H14.5015C13.805 15.0063 13.1753 15.2914 12.7214 15.7511C17.1683 19.7811 22.1905 23.8807 23.1258 23.9461Z" fill="#587A33"/>
</g>
<mask id="mask1_168_68" style="mask-type:luminance" maskUnits="userSpaceOnUse" x="12" y="16" width="23" height="15">
<path d="M12 16.6074H34.2416V30.3752H12V16.6074Z" fill="white"/>
</mask>
<g mask="url(#mask1_168_68)">
<path d="M29.6655 20.6009C24.3532 25.0972 23.4902 25.0972 23.1215 25.0972C22.7536 25.0972 21.8914 25.0972 16.5775 20.6378C14.7197 19.0786 12.9524 17.5055 12.1158 16.7533C12.04 16.9917 11.9988 17.2457 11.9988 17.5093V27.8729C11.9988 29.254 13.1185 30.3737 14.4995 30.3737H31.74C33.1222 30.3737 34.2427 29.2536 34.2427 27.871V17.5074C34.2427 17.225 34.1937 16.9547 34.1073 16.7012C33.2638 17.4658 31.509 19.0405 29.6655 20.6009Z" fill="#587A33"/>
</g>
</svg>
